X:1
T:Missa Vecy la danse de Barbarie
T:Missa Vecy la danse de Barbarie
T:Anthonius Barbé I
C:Anthonius Barbé I
%%score [ 1 2 3 4 ]
L:1/8
Q:1/4=120
M:2/2
K:F
V:1 treble nm="Soprano"
V:2 treble nm="Alto"
V:3 treble-8 nm="Tenor"
V:4 bass nm="Bass"
V:1
 z8 | z8 | z8 | z8 | G8 | A4 B4 | c6 c2 | B3 A/G/ A4 | G4 z2 c2- | c2 B2 G2 B2- | B2 A4 G2- | %11
w: ||||Ky-|ri- *|e e-|le- * * y-|son, Ky-|* ri- e e-|* le- *|
 G2 FE F G2 F | G8 || G4 B4- | B2 AG FEFG | A2 B4 A2- | A2 G2 A4 | D8 | z8 | z8 | G4 d4- | %21
w: |son.|Chri- ste|_ e- * le- * * *||* * y-|son,|||Chri- ste|
 d2 d2 c2 d2- | dcBA B4 | A8 | D4 z4 | C4 G4 | G4 F4- | F8 || z8 | z4 z2 d2- | d2 d2 c3 B/A/ | %31
w: _ e- le- *||y-|son,|[e- le-|y- son.]|_||Ky-|* ri- e _ _|
 B2 A3 G G2- | G2 F2 G3 F | E2 C2 D4 | C2 D2 E2 F2 | D4 C2 c2- | c2 c2 B3 A/G/ | A2 G3 F F2- | %38
w: _ e- * le-||||* son, Ky-|* ri- e _ _|_ e- * le-|
 F2 E2 F2 C2 | FGAB c3 B | A2 G3 FED | E4 F3 G | A4 z4 | z2 d4 d2 | c3 B/A/ B2 A2- | AG G4"^#" F2 | %46
w: |||* y- *|son,|Ky- ri-|e _ _ _ e-|* * le- y-|
 G8 |] %47
w: son.|
V:2
 z8 | z8 | z8 | z8 | G6 E2 | F4 G4 | C3 D E2 F2 | D2 G4 F2 | G4 C3 D | E2 F4 E2 | F2 F,2 G,3 A, | %11
w: ||||Ky- ri-|e _|_ _ _ _||||* e- le- *|
 B,C D3 C CB,/A,/ | B,8 || z4 G,4 | D6 D2 | C2 D3 CB,A, | B,4 A,4 | z4 G,4 | D6 D2 | C2 D3 CB,A, | %20
w: * * * * y- * *|son.|Chri-|ste e-|le- * * * *|y- son,|Chri-|ste e-|le- * * * *|
 B,4 A,4 | z4 z2 D2- | D2 G4 G2 | F4 E2 F2- | F2 G2 E2 D2 | FEDC B,A,G,F, | G,2 A,2 B,4 | A,8 || %28
w: y- son,|Chri-|* ste e-|le- * *|||* * y-|son.|
 z2 D4 D2 | C3 B,/A,/ B,2 A,2- | A,G, G,4 F,2 | G,2 A,2 B,2 C2 | A,4 G,2 G2- | G2 G2 F3 E/D/ | %34
w: Ky- ri|e _ _ _ e-|* * le- *||y- son, Ky-|* ri e _ _|
 E2 D3 C C2- | C2 B,2 C2 C2 | A,2 F,2 B,3 C | D2 G,2 A,2 F,2 | G,4 A,2 A2- | A2 A2 G3 F/E/ | %40
w: _ e- * le-|* y- son, Ky-|ri- e e- *|le- * * *|i- son, Ky-|* ri e _ _|
 F2 E4 D2- | D2 C2 D4 | z2 A4 A2 | G2 F4 ED | F4 ED D2- | D2 C2 D4- | D8 |] %47
w: _ e- le-|* y- son,|Ky- ri-|e _ _ _|_ e- * le-|* y- son.|_|
V:3
 G8 | A4 B4 | c6 c2 | B3 A/G/ A4 | G8 | z2 d2 B2 G2 | A3 B c2 F2 | G4 d4 | G4 A4 | B8 | c6 c2 | %11
w: Ky-|ri- *|e e-|le- * * y-|son,|Ky- ri- e|e- * * le-|||||
 B3 A/G/ A4 | G8 || z8 | z8 | z2 G4 d2- | d2 d2 c2 d2- | dcBA B4 | A2 B3 AGF | G2 A2 D2 d2- | %20
w: |son.|||Chri- ste-|_ e- le- *||||
 d2 d2 f3 e | dc B2 A2 G2 | z2 G4 d2- | d2 d2 c2 d2- | dcBA B4 | A2 BA Bc d2- | d2 c2 d4- | d8 || %28
w: |||* e- le- *|||* y- son.|_|
 z8 | z8 | z8 | z8"^b" | z2 d4 d2 | c3 B/A/ B2 A2- | AG G4 F2 | G2 g4 g2 | f3 e/d/ e2 d2- | %37
w: |||||e _ _ _ e-|* * le- y-|son, [Ky- ri-|e _ _ _ e-|
 dc c4 B2 | c4 z2 FG | AB c3 dec | d2 G2 B4 | A4 z2 d2- | d2 d2 c3 B/A/ | B2 A3 G G2- | %44
w: * * le- y-|son], Ky- *|ri- * e _ _ _|_ e- ley-|son, Ky-|* ri- e _ _|_ e- * le-|
 G2 F2 G2 A2 |"^b" B2 G2 A4 | G8 |] %47
w: |* * y-|son.|
V:4
 G,6 E,2 | F,4 G,4 | C,3 D, E,2 F,2 | D,2 G,4 F,2 | G,4 E,4 | D,4 z4 | z8 | z4 D,4 | E,4 F,4 | %9
w: Ky- ri-|e _|_ _ _ _|* * e|le- y-|son,||Ky-|ri- *|
 G,6 G,2 | F,3 E,/D,/ E,4 | D,8 | G,,8 || z8 | z8 | z8 | z4 z2 D,2- | D,2 G,4 G,2 | %18
w: e e-|le- * * *|y-|son.||||Chri-|* ste- e|
 F,2 G,3 F,E,D, | E,2 D,2 F,4 | G,4 D,3 E, | F,2 G,2 A,2 B,2- | B,A,G,F, G,4 | D,4 z2 D,2- | %24
w: le- * * * *||||* * * * y-|son, Chri-|
 D,2 G,4 G,2 | F,2 G,3 F,E,D, | E,4 D,4- | D,8 || D,3 E, F,2 G,2 | E,2 F,2 G,2 D,2 | F,2 G,2 A,4 | %31
w: * ste e-|le- * * * *|y- son.|_||||
 G,2 F,2 E,2 C,2 | D,4 G,4 | C,4 z4 | z8 | G,4 E,2 C,2 | F,2 A,2 G,4 | F,2 E,2 D,4 | C,4 F,4- | %39
w: ||||Ky- ri- e|e- * le-||* y-|
 F,4 C,4 | z8 | z4 D,3 E, | F,E,F,G, A,2 F,2 | G,2 D,2 F,2 G,2 | A,4 G,2 F,2 | E,4 D,4 | G,8 |] %47
w: * son,||Ky- *|* * * * * ri-|e _ _ _|_ _ e-|le- y-|son.|

